svg/color/coin.svg

<svg width="64" height="65" viewBox="0 0 64 65" fill="none" xmlns="http://www.w3.org/2000/svg">
<rect y="0.303711" width="64" height="64" rx="32" fill="#EFB914"/>
<rect x="0.5" y="0.803711" width="63" height="63" rx="31.5" stroke="#070B14" stroke-opacity="0.15"/>
<path fill-rule="evenodd" clip-rule="evenodd" d="M42.0039 20.0137C43.6788 21.3279 45.0726 22.9651 46.1026 24.8282C47.1326 26.6914 47.7778 28.7424 47.9999 30.8597L42.3059 29.4437C41.7701 27.6544 40.7757 26.0362 39.4215 24.7497C38.0673 23.4633 36.4004 22.5532 34.5859 22.1097C28.8539 20.6837 23.0659 24.0917 21.6559 29.7217C20.2459 35.3517 23.7559 41.0717 29.4899 42.4977C31.3023 42.9552 33.2028 42.9321 35.0035 42.4305C36.8042 41.9289 38.443 40.9663 39.7579 39.6377L45.4519 41.0517C44.2588 42.8179 42.7237 44.3269 40.9374 45.4897C39.1511 46.6525 37.1499 47.4455 35.0519 47.8217L33.4319 54.3037L28.2399 53.0137L29.5279 47.8637C28.6466 47.7187 27.7784 47.5027 26.9319 47.2177L25.6459 52.3677L20.4539 51.0757L22.0739 44.5937C17.3179 40.8437 14.9239 34.6017 16.4659 28.4317C18.0079 22.2617 23.0599 17.8697 29.0259 16.7857L30.6459 10.3037L35.8379 11.5937L34.5499 16.7437C35.4312 16.8887 36.2994 17.1047 37.1459 17.3897L38.4319 12.2397L43.6239 13.5317L42.0039 20.0137Z" fill="white"/>
</svg>

<svg xmlns="http://www.w3.org/2000/svg" width="64" height="65" fill="none" viewBox="0 0 64 65"><rect width="64" height="64" y=".304" fill="#EFB914" rx="32"/><rect width="63" height="63" x=".5" y=".804" stroke="#070B14" stroke-opacity=".15" rx="31.5"/><path fill="#fff" fill-rule="evenodd" d="M42.004 20.014A15.9 15.9 0 0 1 48 30.86l-5.694-1.416a10.71 10.71 0 0 0-7.72-7.334c-5.732-1.426-11.52 1.982-12.93 7.612s2.1 11.35 7.834 12.776a10.75 10.75 0 0 0 10.268-2.86l5.694 1.414a15.95 15.95 0 0 1-10.4 6.77l-1.62 6.482-5.192-1.29 1.288-5.15a16.6 16.6 0 0 1-2.596-.646l-1.286 5.15-5.192-1.292 1.62-6.482c-4.756-3.75-7.15-9.992-5.608-16.162s6.594-10.562 12.56-11.646l1.62-6.482 5.192 1.29-1.288 5.15c.881.145 1.75.36 2.596.646l1.286-5.15 5.192 1.292z" clip-rule="evenodd"/></svg>
